X:1
T:The Canongate Twitch
R:reel
D:Lisa MacArthur
O:the Tanahill Weavers, Scotland
Z:Paul Stewart Cranford (P.S.C.), <http://www.cranfordpub.com>
L:1/8
M:C|
Q:333
K:A
z|Ac c/c/c dcBc|Acea f2 ec|Ac c/c/c dcBe|fB B/B/B aBfB|
ec c/c/c dcBc|Acea f2 ec|ABcA B2 AB|ceBd cAA:|
|:e|aAAa fddf|e2 ef ecBc|{d}cAAB ABce|fBBf Bcde|
aAAa fddf|e2 ef ecBc|ABcA B2 AB|ceBd cAA:|
